X: 261
T:Ave maris stella / Virgo singularis
N: Derived from Jos2308-Ave_maris_stella.krn
C: Josquin des Prez
%%abc-version 2.0
%%abcx-abcm2ps-target-version 5.9.1 (29 Sep 2008)
%%abc-creator hum2abc beta
%%abcx-conversion-date 2019/02/12 16:15:51
%%abc-edited-by Jesse Rodin
%%abc-edited-by Will Watson 15/09/2011
%%abcx-initial-encoding-date 2011/09/15/
%%humdrum-veritas 2729539024
%%humdrum-veritas-data 3441698670
%%linebreak <none>
%%barnumbers 0
L: 1/4
M: 2/1
Q: 1/2=120
%%staves [1 2 3 4]
V: 1 clef=treble
V: 2 clef=treble
V: 3 clef=treble-8
V: 4 clef=bass
K: F
[V:1] G4d4 | 
[V:2] z4G4 | 
[V:3] z8 | 
[V:4] z8 | 
[V:1] z4G4 | 
[V:2] d4z4 | 
[V:3] z8 | 
[V:4] z8 | 
[V:1] d4z4 | 
[V:2] G4d4- | 
[V:3] z8 | 
[V:4] z8 | 
[V:1] G4d4 | 
[V:2] d2c2B2A2 | 
[V:3] z8 | 
[V:4] z8 | 
[V:1] d2d2c4 | 
[V:2] G2F2E4 | 
[V:3] z8 | 
[V:4] z8 | 
[V:1] d8- | 
[V:2] D4z4 | 
[V:3] G4d4 | 
[V:4] z4G,4 | 
[V:1] d8 | 
[V:2] z8 | 
[V:3] z4G4 | 
[V:4] D4z4 | 
[V:1] z8 | 
[V:2] z8 | 
[V:3] d4z4 | 
[V:4] G,4D4- | 
[V:1] z8 | 
[V:2] z8 | 
[V:3] G4d4 | 
[V:4] D2C2B,2A,2 | 
[V:1] z8 | 
[V:2] z8 | 
[V:3] d2d2c4 | 
[V:4] G,2F,2E,4 | 
[V:1] z8 | 
[V:2] z8 | 
[V:3] d8- | 
[V:4] D,8- | 
[V:1] z4d4 | 
[V:2] z8 | 
[V:3] d8 | 
[V:4] D,8 | 
[V:1] d4G3A | 
[V:2] G4G2C2 | 
[V:3] z8 | 
[V:4] z8 | 
[V:1] B2c4B2 | 
[V:2] G2CDEFG2- | 
[V:3] z8 | 
[V:4] z8 | 
[V:1] A4G4 | 
[V:2] G2^F2G4- | 
[V:3] d4d4 | 
[V:4] z4G,4 | 
[V:1] z8 | 
[V:2] G8- | 
[V:3] G3AB2c2- | 
[V:4] G,2C,2G,2C,D, | 
[V:1] z8 | 
[V:2] G4z4 | 
[V:3] c2B2A4 | 
[V:4] E,F,G,4^F,2 | 
[V:1] z4d4 | 
[V:2] z8 | 
[V:3] G2B4G2 | 
[V:4] G,4B,4 | 
[V:1] d2d3cB2- | 
[V:2] z8 | 
[V:3] B2G2B3c | 
[V:4] G,2B,3A,G,2- | 
[V:1] BAF2G4 | 
[V:2] z8 | 
[V:3] d4G4 | 
[V:4] G,F,D,2E,4 | 
[V:1] F4f4 | 
[V:2] z2F4D2 | 
[V:3] z8 | 
[V:4] D,4D4 | 
[V:1] d2f3ed2- | 
[V:2] F3GA2B2- | 
[V:3] z8 | 
[V:4] D2D3CB,2- | 
[V:1] dcA2B4 | 
[V:2] BAA2G4 | 
[V:3] z8 | 
[V:4] B,A,F,2G,4 | 
[V:1] A8 | 
[V:2] F4z4 | 
[V:3] z4A4 | 
[V:4] D,4z4 | 
[V:1] z8 | 
[V:2] z8 | 
[V:3] c4A4 | 
[V:4] A,4C4 | 
[V:1] z8 | 
[V:2] z8 | 
[V:3] Bcdefga2- | 
[V:4] z4A,4 | 
[V:1] z8 | 
[V:2] z8 | 
[V:3] agg4^f2 | 
[V:4] B,3G,A,4 | 
[V:1] z8 | 
[V:2] D4F4 | 
[V:3] g2d4f2- | 
[V:4] G,4D,4 | 
[V:1] A4c4 | 
[V:2] z8 | 
[V:3] f2edc2A2 | 
[V:4] F,4F,2F,2 | 
[V:1] z4A4 | 
[V:2] z4F2F2 | 
[V:3] Bcdefga2- | 
[V:4] G,4D,4 | 
[V:1] B3GA4 | 
[V:2] G4D4 | 
[V:3] a2g4^f2 | 
[V:4] z8 | 
[V:1] G4E4 | 
[V:2] z8 | 
[V:3] g8 | 
[V:4] z8 | 
[V:1] G4E4 | 
[V:2] E4G4 | 
[V:3] z8 | 
[V:4] z8 | 
[V:1] FGABcde2- | 
[V:2] z4E4 | 
[V:3] z8 | 
[V:4] z8 | 
[V:1] edd4^c2 | 
[V:2] F2D2E4 | 
[V:3] z8 | 
[V:4] D,4A,4 | 
[V:1] d8 | 
[V:2] D8 | 
[V:3] G4d4 | 
[V:4] B,2B,2B,4 | 
[V:1] z8 | 
[V:2] z8 | 
[V:3] e4c4 | 
[V:4] A,8 | 
[V:1] z8 | 
[V:2] z8 | 
[V:3] d3ef2e2- | 
[V:4] z2B,4G,2 | 
[V:1] z4G4 | 
[V:2] z8 | 
[V:3] e2d4^c2 | 
[V:4] A,2F,2E,4 | 
[V:1] d4z4 | 
[V:2] D4A4 | 
[V:3] d4z4 | 
[V:4] D,8 | 
[V:1] G4d4 | 
[V:2] B2B2B4 | 
[V:3] z8 | 
[V:4] z8 | 
[V:1] e4c4 | 
[V:2] A8 | 
[V:3] z8 | 
[V:4] z8 | 
[V:1] d3ef2e2- | 
[V:2] z2B4G2 | 
[V:3] z8 | 
[V:4] z8 | 
[V:1] edd4^c2 | 
[V:2] A2F2E4 | 
[V:3] z8 | 
[V:4] A,4A,4 | 
[V:1] d8 | 
[V:2] D4z4 | 
[V:3] d4d4 | 
[V:4] D,4D3C | 
[V:1] z8 | 
[V:2] z8 | 
[V:3] G3AB2c2 | 
[V:4] B,A,G,4^F,E, | 
[V:1] z8 | 
[V:2] z4d4 | 
[V:3] A4G4- | 
[V:4] ^F,4G,4 | 
[V:1] z4d4 | 
[V:2] d4G4 | 
[V:3] G4z4 | 
[V:4] z8 | 
[V:1] d4G3A | 
[V:2] d3cBAG2- | 
[V:3] z8 | 
[V:4] z8 | 
[V:1] B2c2A4 | 
[V:2] G2^FEF4 | 
[V:3] z8 | 
[V:4] z8 | 
[V:1] G4z4 | 
[V:2] G8- | 
[V:3] z8 | 
[V:4] z8 | 
[V:1] B4B4 | 
[V:2] G8 | 
[V:3] B8 | 
[V:4] G,4G,4 | 
[V:1] c2A2G4 | 
[V:2] z8 | 
[V:3] A4c4 | 
[V:4] A,2F,2E,4 | 
[V:1] F4z4 | 
[V:2] z8 | 
[V:3] d4d4 | 
[V:4] D,4z4 | 
[V:1] B8 | 
[V:2] G4G4 | 
[V:3] G8 | 
[V:4] G,4G,4 | 
[V:1] A4c4 | 
[V:2] A2F2E4 | 
[V:3] z8 | 
[V:4] F,2D,2A,4 | 
[V:1] d4d4 | 
[V:2] D4z4 | 
[V:3] z8 | 
[V:4] D,4z4 | 
[V:1] G8 | 
[V:2] B4B4 | 
[V:3] B8 | 
[V:4] G,4G,4 | 
[V:1] z8 | 
[V:2] c2A2G4 | 
[V:3] A4c4 | 
[V:4] A,2F,2E,4 | 
[V:1] z8 | 
[V:2] F3GA2B2- | 
[V:3] d4d4 | 
[V:4] D,8 | 
[V:1] z8 | 
[V:2] BAGFG2A2- | 
[V:3] G3AB2c2 | 
[V:4] z8 | 
[V:1] z8 | 
[V:2] AGF4E2 | 
[V:3] A2B2G4 | 
[V:4] z8 | 
[V:1] A4c3B | 
[V:2] F4z4 | 
[V:3] F8 | 
[V:4] z4A,4 | 
[V:1] A2G2F2E2- | 
[V:2] z8 | 
[V:3] z8 | 
[V:4] C4A,4 | 
[V:1] EDG4F2 | 
[V:2] z8 | 
[V:3] z8 | 
[V:4] B,3G,A,4 | 
[V:1] G4D4 | 
[V:2] z8 | 
[V:3] z8 | 
[V:4] G,8 | 
[V:1] F4z4 | 
[V:2] A4c3B | 
[V:3] z4A4 | 
[V:4] z8 | 
[V:1] z8 | 
[V:2] A2G2F2E2- | 
[V:3] c4A4 | 
[V:4] z8 | 
[V:1] z8 | 
[V:2] EDG4^F2 | 
[V:3] B3GA4 | 
[V:4] z4D,4 | 
[V:1] z8 | 
[V:2] G8 | 
[V:3] G4G4 | 
[V:4] D4z2D2- | 
[V:1] z8 | 
[V:2] z8 | 
[V:3] d2d2d2d2- | 
[V:4] DCB,3A,G,2- | 
[V:1] z8 | 
[V:2] z8 | 
[V:3] d2cBc4 | 
[V:4] G,F,E,D,E,4 | 
[V:1] z8 | 
[V:2] z4D4 | 
[V:3] d8 | 
[V:4] D,2DCB,A,G,2- | 
[V:1] G4d4 | 
[V:2] d4z2d2- | 
[V:3] z8 | 
[V:4] G,2F,E,D,4 | 
[V:1] z2d2d2d2- | 
[V:2] dcB3AG2- | 
[V:3] z8 | 
[V:4] z4G,4 | 
[V:1] d2cBc4 | 
[V:2] GFEDE4 | 
[V:3] z8 | 
[V:4] B,4A,4 | 
[V:1] d4z4 | 
[V:2] D4d4 | 
[V:3] z4d4 | 
[V:4] D,2D2G,2D2- | 
[V:1] d4d4 | 
[V:2] D2d3cB2- | 
[V:3] d4G3A | 
[V:4] DCB,3A,G,2- | 
[V:1] G4c3B | 
[V:2] BAGFE2F2- | 
[V:3] B2c3BAG | 
[V:4] G,F,E,D,C,2F,2- | 
[V:1] AGG4^F2 | 
[V:2] FEC2D4 | 
[V:3] F2G2A4 | 
[V:4] F,G,E,2D,4 | 
[V:1] G8 | 
[V:2] d4d2d2- | 
[V:3] G4z4 | 
[V:4] z8 | 
[V:1] z8 | 
[V:2] dcB4AG | 
[V:3] B8 | 
[V:4] z4G,4 | 
[V:1] z8 | 
[V:2] F2A4G2 | 
[V:3] A4c4 | 
[V:4] D,2F,4C,2 | 
[V:1] d4f4 | 
[V:2] B3AFGAF | 
[V:3] d4d4 | 
[V:4] G,3F,/E,/D,4 | 
[V:1] e4c2d2- | 
[V:2] G2E2F3D | 
[V:3] G4A2B2- | 
[V:4] C,4z4 | 
[V:1] dcA2B4 | 
[V:2] G2F4E2 | 
[V:3] BAF2G4 | 
[V:4] z8 | 
[V:1] A8 | 
[V:2] F4D4 | 
[V:3] F4z4 | 
[V:4] z8 | 
[V:1] z4A4 | 
[V:2] F6ED | 
[V:3] z8 | 
[V:4] D,4F,4- | 
[V:1] c6BA | 
[V:2] C2C2E4 | 
[V:3] A4c4- | 
[V:4] F,2E,D,C,2D,2 | 
[V:1] G2G2B4- | 
[V:2] E8 | 
[V:3] c2BAG2G2 | 
[V:4] E,6D,C, | 
[V:1] B2AGF2A2- | 
[V:2] D4z4 | 
[V:3] B6AG | 
[V:4] B,,3C,D,E,F,2- | 
[V:1] AGG4^F2 | 
[V:2] z8 | 
[V:3] F2G2A4 | 
[V:4] F,D,E,2D,4 | 
[V:1] G8 | 
[V:2] G4G4 | 
[V:3] G4z4 | 
[V:4] z4G,4 | 
[V:1] z8 | 
[V:2] d6cB | 
[V:3] G4G4 | 
[V:4] G,4D4 | 
[V:1] z8 | 
[V:2] A2B2A2B2- | 
[V:3] d6cd | 
[V:4] D,3E,F,2G,2- | 
[V:1] G4G4 | 
[V:2] BAG4FE | 
[V:3] e4c4 | 
[V:4] G,F,E,D,E,4 | 
[V:1] d6cd | 
[V:2] F2B2A2B2- | 
[V:3] d3ef2g2- | 
[V:4] D,4z4 | 
[V:1] e4c4 | 
[V:2] BAGFG3A | 
[V:3] gfede4 | 
[V:4] z8 | 
[V:1] d3ef2g2- | 
[V:2] BABcd2e2- | 
[V:3] d4z4 | 
[V:4] z8 | 
[V:1] gfede4 | 
[V:2] edd4^c2 | 
[V:3] z8 | 
[V:4] A,4A,4 | 
[V:1] d4G4 | 
[V:2] d4z4 | 
[V:3] z2d4c2 | 
[V:4] F,2G,2E,4 | 
[V:1] FGABcde2- | 
[V:2] A4A4 | 
[V:3] d4A4 | 
[V:4] D,2D,2A,4 | 
[V:1] edd4^c2 | 
[V:2] F2G2E4 | 
[V:3] z8 | 
[V:4] B,2G,2A,4 | 
[V:1] d4z4 | 
[V:2] DEFGA2B2- | 
[V:3] d4d4 | 
[V:4] D,3E,F,2G,2- | 
[V:1] z8 | 
[V:2] BAG4F2 | 
[V:3] B2c2A4 | 
[V:4] G,2C,2D,4 | 
[V:1] d4d4 | 
[V:2] G2B3AG2- | 
[V:3] G3AB2cd | 
[V:4] z8 | 
[V:1] B2c2A4 | 
[V:2] G2^FEF4 | 
[V:3] (3e4c4d4 | 
[V:4] z8 | 
[V:1] G2d2d2d2 | 
[V:2] G8 | 
[V:3] G4z4 | 
[V:4] z8 | 
[V:1] f8 | 
[V:2] z2D2D2D2 | 
[V:3] B8 | 
[V:4] B,,4B,,2B,,2 | 
[V:1] z8 | 
[V:2] F4E4 | 
[V:3] A4c4 | 
[V:4] D,4C,4 | 
[V:1] z2f2f2f2 | 
[V:2] DEFGA2B2- | 
[V:3] d4d4 | 
[V:4] B,,4z4 | 
[V:1] d2f3ed2- | 
[V:2] B2AGF2G2 | 
[V:3] G2d3cB2- | 
[V:4] z8 | 
[V:1] dcBAB4 | 
[V:2] D4D4 | 
[V:3] BAGFG4 | 
[V:4] z8 | 
[V:1] A4A4 | 
[V:2] F6ED | 
[V:3] F4z4 | 
[V:4] D,4F,4- | 
[V:1] c6BA | 
[V:2] C4z4 | 
[V:3] G4c4- | 
[V:4] F,2E,D,C,4 | 
[V:1] G2G2B3c | 
[V:2] E4G4 | 
[V:3] c4z4 | 
[V:4] z4G,4 | 
[V:1] A4G3F | 
[V:2] z4E4 | 
[V:3] A4c4- | 
[V:4] D,2F,2C,3D, | 
[V:1] GAB4AG | 
[V:2] G6FE | 
[V:3] c2BAG2G2 | 
[V:4] E,F,G,3A,B,2- | 
[V:1] F4z4 | 
[V:2] D2D2F3G | 
[V:3] B3cA4 | 
[V:4] B,2A,G,F,2D,2 | 
[V:1] G3ABcB2- | 
[V:2] E4D4- | 
[V:3] G8 | 
[V:4] E,2C,2G,4 | 
[V:1] B2AGA4 | 
[V:2] D4z4 | 
[V:3] z4A4 | 
[V:4] z4D,2F,2 | 
[V:1] G2G3AB2- | 
[V:2] E4G4- | 
[V:3] c6BA | 
[V:4] C,3D,E,F,G,2- | 
[V:1] B2AGF4 | 
[V:2] G2FED2D2 | 
[V:3] G2G2A3B | 
[V:4] G,A,B,4A,G, | 
[V:1] z4G3A | 
[V:2] F3GE4 | 
[V:3] A4G4- | 
[V:4] F,3D,E,2C,2 | 
[V:1] BcB4AG | 
[V:2] D8- | 
[V:3] G8- | 
[V:4] G,8- | 
[V:1] d8 ||  
[V:2] D8 ||  
[V:3] G8 ||  
[V:4] G,8 ||  
[V:1] z4G4 | 
[V:2] G4d4 | 
[V:3] z8 | 
[V:4] z8 | 
[V:1] d4z2d2 | 
[V:2] z2G2G2G2- | 
[V:3] z8 | 
[V:4] z8 | 
[V:1] d2d4cB | 
[V:2] G2FEF2G2 | 
[V:3] z8 | 
[V:4] z8 | 
[V:1] c4d4- | 
[V:2] E4D4 | 
[V:3] z8 | 
[V:4] z4G,4 | 
[V:1] d4z2B2 | 
[V:2] z8 | 
[V:3] G4d4 | 
[V:4] D4z2G,2 | 
[V:1] B2B4AG | 
[V:2] z8 | 
[V:3] z2d2d2d2- | 
[V:4] G,2G,4F,E, | 
[V:1] A2B2G4 | 
[V:2] z8 | 
[V:3] d2cBc4 | 
[V:4] F,2G,2E,4 | 
[V:1] F4B4 | 
[V:2] z4G4 | 
[V:3] d8- | 
[V:4] D,4G,4 | 
[V:1] B4G3A | 
[V:2] G4E4 | 
[V:3] d4z4 | 
[V:4] G,4C,4 | 
[V:1] B4z2B2- | 
[V:2] D2dcBAG2- | 
[V:3] d4d4 | 
[V:4] G,4z2G,2- | 
[V:1] BAGFG2A2- | 
[V:2] GFD2E4 | 
[V:3] G4c4 | 
[V:4] G,2G,2C,2C,2 | 
[V:1] AGG4^F2 | 
[V:2] D8 | 
[V:3] B3GA4 | 
[V:4] G,4D,4 | 
[V:1] G4B4 | 
[V:2] z2D2D2D2 | 
[V:3] G8 | 
[V:4] z8 | 
[V:1] A4c4 | 
[V:2] F4E4 | 
[V:3] z8 | 
[V:4] z8 | 
[V:1] d3cdef2- | 
[V:2] D2F2F2F2 | 
[V:3] B8 | 
[V:4] z2B,,2B,,2B,,2 | 
[V:1] fecdefge | 
[V:2] A4G4 | 
[V:3] A4c4 | 
[V:4] F,4E,4 | 
[V:1] f3ed4 | 
[V:2] F3GA2B2- | 
[V:3] d4d4 | 
[V:4] D,3E,F,2G,2- | 
[V:1] z8 | 
[V:2] BAGFE2A2- | 
[V:3] G2c3BAG | 
[V:4] G,F,E,D,C,4 | 
[V:1] z8 | 
[V:2] AGF4E2 | 
[V:3] F2A2G4 | 
[V:4] z8 | 
[V:1] z2A4c2- | 
[V:2] F4A4 | 
[V:3] F4z4 | 
[V:4] D,4F,4- | 
[V:1] c2BAG2A2- | 
[V:2] c4z4 | 
[V:3] A4c4 | 
[V:4] F,4_E,2C,2 | 
[V:1] AGG4^F2 | 
[V:2] z4A4 | 
[V:3] B2G2A4 | 
[V:4] _E,4D,4 | 
[V:1] G2DE^FGAF | 
[V:2] B3GA4 | 
[V:3] G4z4 | 
[V:4] z8 | 
[V:1] G4z4 | 
[V:2] G4G4 | 
[V:3] z8 | 
[V:4] z8 | 
[V:1] G4d4 | 
[V:2] d4D4 | 
[V:3] z8 | 
[V:4] z8 | 
[V:1] d2d2c4 | 
[V:2] F3DE4 | 
[V:3] z8 | 
[V:4] D,4A,4 | 
[V:1] d4z4 | 
[V:2] D4z2D2 | 
[V:3] G4d4 | 
[V:4] z2B,4B,2 | 
[V:1] z8 | 
[V:2] F3DE4 | 
[V:3] d2d2c4 | 
[V:4] B,4A,4 | 
[V:1] f4f2f2- | 
[V:2] D4A4 | 
[V:3] d8 | 
[V:4] z2D2D,2D2- | 
[V:1] fed4cB | 
[V:2] D2F2D2F2- | 
[V:3] z4d4 | 
[V:4] DCB,4A,G, | 
[V:1] A2B2G4 | 
[V:2] FED4C2 | 
[V:3] d4G4 | 
[V:4] F,2G,2E,4 | 
[V:1] F8 | 
[V:2] D2A3GFE | 
[V:3] A3GA2B2- | 
[V:4] D,8- | 
[V:1] z8 | 
[V:2] D2G4^F2 | 
[V:3] B2AGA4 | 
[V:4] D,8 | 
[V:1] z4D4 | 
[V:2] G4z4 | 
[V:3] G4z4 | 
[V:4] z4G,4- | 
[V:1] D4A4- | 
[V:2] G4F3D | 
[V:3] B4A4 | 
[V:4] G,4D,4 | 
[V:1] A4F4 | 
[V:2] E4D4 | 
[V:3] c4d4 | 
[V:4] A,4B,4 | 
[V:1] B8 | 
[V:2] G8 | 
[V:3] d8- | 
[V:4] G,8 | 
[V:1] A8 | 
[V:2] F8 | 
[V:3] d8 | 
[V:4] D,8 | 
[V:1] d3cBAG2- | 
[V:2] B8- | 
[V:3] G3ABcB2- | 
[V:4] z8 | 
[V:1] GFF4E2 | 
[V:2] B8 | 
[V:3] BAGFG4 | 
[V:4] z8 | 
[V:1] F8 | 
[V:2] A8 | 
[V:3] F4z4 | 
[V:4] D,4F,4- | 
[V:1] z8 | 
[V:2] z8 | 
[V:3] A4c4 | 
[V:4] F,2E,D,C,3D, | 
[V:1] z8 | 
[V:2] z8 | 
[V:3] B2G2A4 | 
[V:4] E,F,G,4^F,2 | 
[V:1] z8 | 
[V:2] D4F4- | 
[V:3] G4z4 | 
[V:4] G,4D,4 | 
[V:1] A4c4 | 
[V:2] F2EDC3D | 
[V:3] z8 | 
[V:4] z8 | 
[V:1] B2G2A4 | 
[V:2] EFG4^F2 | 
[V:3] z8 | 
[V:4] z8 | 
[V:1] G4z4 | 
[V:2] G8 | 
[V:3] z4G4 | 
[V:4] G,4D2G,2 | 
[V:1] z8 | 
[V:2] z8 | 
[V:3] d2G2B2GA | 
[V:4] B,3A,G,F,G,2- | 
[V:1] z8 | 
[V:2] z8 | 
[V:3] Bcd4^c2 | 
[V:4] G,F,D,2E,4 | 
[V:1] z4G4 | 
[V:2] D4d2G2 | 
[V:3] d4z4 | 
[V:4] D,4z4 | 
[V:1] d2G2d2GA | 
[V:2] B3AGFG2- | 
[V:3] z8 | 
[V:4] z8 | 
[V:1] Bcd4^c2 | 
[V:2] GFD2E4 | 
[V:3] z8 | 
[V:4] z8 | 
[V:1] d4z4 | 
[V:2] D4z2D2- | 
[V:3] z4d4 | 
[V:4] D4D2G,A, | 
[V:1] d4d4 | 
[V:2] DEFE/F/G4 | 
[V:3] d4G4 | 
[V:4] B,CD4G,2 | 
[V:1] G4c3B | 
[V:2] E2E2C4- | 
[V:3] c3BAGF2- | 
[V:4] z2C3B,A,G, | 
[V:1] AGG4^F2 | 
[V:2] C4D4 | 
[V:3] F2G2A4 | 
[V:4] F,2E,2D,4 | 
[V:1] G4B4 | 
[V:2] z2D2D2D2 | 
[V:3] G8 | 
[V:4] z8 | 
[V:1] A4c4 | 
[V:2] F3GA4 | 
[V:3] z8 | 
[V:4] z8 | 
[V:1] d2D2D2D2 | 
[V:2] D2F2F2F2 | 
[V:3] B8 | 
[V:4] z2D,2D,2D,2 | 
[V:1] A4A4 | 
[V:2] F4E4 | 
[V:3] A4c4 | 
[V:4] F,3G,A,4 | 
[V:1] F8 | 
[V:2] D4z4 | 
[V:3] d4d4 | 
[V:4] D,8 | 
[V:1] z8 | 
[V:2] z8 | 
[V:3] G3AB2c2- | 
[V:4] z2G,3F,E,D, | 
[V:1] z8 | 
[V:2] z4G4 | 
[V:3] c2BAG4 | 
[V:4] C,2F,4E,2 | 
[V:1] z2A4c2- | 
[V:2] A4A3G | 
[V:3] F4A4 | 
[V:4] F,2D,2F,3E, | 
[V:1] cBG2B3A | 
[V:2] E2G3FD2 | 
[V:3] c3BG2B2- | 
[V:4] C,2E,3D,B,,C, | 
[V:1] FGABc2CD | 
[V:2] F3ECDEF | 
[V:3] BAFGABc2- | 
[V:4] D,E,F,4E,D, | 
[V:1] EFG4^F2 | 
[V:2] G2C2D4- | 
[V:3] cBG2A4 | 
[V:4] C,2E,2D,4 | 
[V:1] G2d3cB2- | 
[V:2] D8 | 
[V:3] G4z2GA | 
[V:4] z2B,3A,G,2- | 
[V:1] BAGFG4 | 
[V:2] z2B4AG | 
[V:3] Bcd4c2 | 
[V:4] G,F,E,D,E,4 | 
[V:1] !fermata!F8- | 
[V:2] B2A3GFE | 
[V:3] d2f3ed2- | 
[V:4] !fermata!D,8- | 
[V:1] F8- | 
[V:2] !fermata!D8- | 
[V:3] dcBAB4 | 
[V:4] D,8- | 
[V:1] F8 | 
[V:2] D8 | 
[V:3] !fermata!A8 | 
[V:4] D,8 | 
[V:1] G8 |]  
[V:2] D8 |]  
[V:3] G8 |]  
[V:4] G,8 |]  



